assets/images/cat-4.svg

<svg width="64" height="64" viewBox="0 0 64 64" fill="none" xmlns="http://www.w3.org/2000/svg">
<g id="simple-line-icons:chemistry" clip-path="url(#clip0_1080_64948)">
<path id="Vector" d="M50.651 60.6702L40.0009 48.0662V25.9722H41.3329C42.4379 25.9722 43.3329 25.0772 43.3329 23.9722C43.3329 22.8672 42.4379 21.9722 41.3329 21.9722H38.0009C36.8959 21.9722 36.0009 22.8672 36.0009 23.9722V48.8362C36.0008 49.3314 36.1847 49.809 36.5169 50.1762L44.6649 60.0101H19.3349L27.4829 50.1761C27.8152 49.8089 27.9991 49.3313 27.9989 48.8361V23.9723C27.9989 22.8673 27.1039 21.9723 25.9989 21.9723H22.6669C21.5619 21.9723 20.6669 22.8673 20.6669 23.9723C20.6669 25.0773 21.5619 25.9723 22.6669 25.9723H23.9989V48.0663L13.3489 60.6703C13.0898 60.9574 12.9195 61.3135 12.8585 61.6953C12.7974 62.0772 12.8483 62.4686 13.0049 62.8222C13.162 63.1759 13.4183 63.4764 13.7428 63.6873C14.0672 63.8981 14.4459 64.0104 14.8329 64.0103H49.1669C49.5539 64.0104 49.9326 63.8981 50.2571 63.6873C50.5816 63.4764 50.8379 63.1759 50.995 62.8222C51.315 62.1003 51.181 61.2563 50.651 60.6703V60.6702ZM29.9999 19.9802C32.2039 19.9802 33.9899 18.1932 33.9899 15.9902C33.9899 13.7892 32.2039 12.0023 29.9999 12.0023C27.7949 12.0023 26.0099 13.7892 26.0099 15.9902C26.0099 18.1932 27.7949 19.9802 29.9999 19.9802ZM43.0299 14.0432C46.9279 14.0432 50.0879 10.8972 50.0879 7.01721C50.0879 3.13721 46.9289 -0.00878906 43.0299 -0.00878906C39.1329 -0.00878906 35.9719 3.13721 35.9719 7.01721C35.9719 10.8972 39.1329 14.0432 43.0299 14.0432ZM42.9989 3.97915C44.6649 3.97915 46.0199 5.32815 46.0199 6.98715C46.0199 8.64515 44.6649 9.99515 42.9989 9.99515C41.3329 9.99515 39.9779 8.64515 39.9779 6.98715C39.9789 5.32815 41.3329 3.97915 42.9989 3.97915Z" fill="black"/>
</g>
<defs>
<clipPath id="clip0_1080_64948">
<rect width="64" height="64" fill="white"/>
</clipPath>
</defs>
</svg>

<svg width="64" height="64" fill="none" xmlns="http://www.w3.org/2000/svg"><g clip-path="url(#a)"><path d="m50.651 60.67-10.65-12.604V25.972h1.332a2 2 0 1 0 0-4H38a2 2 0 0 0-2 2v24.864c0 .495.184.973.516 1.34l8.148 9.834h-25.33l8.148-9.834c.332-.367.516-.845.516-1.34V23.972a2 2 0 0 0-2-2h-3.332a2 2 0 1 0 0 4h1.332v22.094L13.349 60.67a2.001 2.001 0 0 0 1.484 3.34h34.334a2 2 0 0 0 1.484-3.34ZM30 19.98A3.99 3.99 0 1 0 30 12a3.99 3.99 0 0 0 0 7.98Zm13.03-5.937c3.898 0 7.058-3.146 7.058-7.026S46.928-.009 43.03-.009c-3.897 0-7.058 3.146-7.058 7.026s3.16 7.026 7.058 7.026ZM42.999 3.98a3.018 3.018 0 0 1 3.02 3.008A3.018 3.018 0 0 1 43 9.995a3.018 3.018 0 0 1-3.021-3.008 3.018 3.018 0 0 1 3.02-3.008Z" fill="#000"/></g><defs><clipPath id="a"><path fill="#fff" d="M0 0h64v64H0z"/></clipPath></defs></svg>
